X:2712
T:Carrowcastle Lasses
T:George White's Favorite
S:Kincora Ceili Band
R:reel
E:7
I:speed 350
M:C|
K:G
Bd|eB~B2 eBdB|AGAB GED2|GB~B2 dB~B2|eBdB A2Bd|\
eB~B2 eBdB|AGAB GED2|GABd gedB|AGAB G2:|*
de|gede gaba|gfga gedB|dega bgag|eaag a2 ga|\
bgeg d2ef|gede gaba|~g3d egdB|AGAB G2:|**


